;Generated by Cura LulzBot Edition GCodeWriter Version: 3.2.32
;FLAVOR:Marlin
;TIME:48118
;Filament used: 34.5907m
;Layer height: 0.2
;Generated with Cura_SteamEngine 3.2.32
M82 ;absolute extrusion mode
;This G-Code has been generated specifically for the LulzBot TAZ 6 with standard extruder
M75 ; start GLCD timer
G26 ; clear potential 'probe fail' condition
G21 ; set units to Millimetres
M107 ; disable fans
M420 S0 ; disable previous leveling matrix
G90 ; absolute positioning
M82 ; set extruder to absolute mode
G92 E0 ; set extruder position to 0
M140 S60 ; start bed heating up
M109 R160 ; soften filament before homing Z
G28 ; Home all axis
G1 E-30 F100 ; retract filament
M109 R160 ; wait for extruder to reach wiping temp
G1 X-15 Y100 F3000 ; move above wiper pad
G1 Z1 ; push nozzle into wiper
G1 X-17 Y95 F1000 ; slow wipe
G1 X-17 Y90 F1000 ; slow wipe
G1 X-17 Y85 F1000 ; slow wipe
G1 X-15 Y90 F1000 ; slow wipe
G1 X-17 Y80 F1000 ; slow wipe
G1 X-15 Y95 F1000 ; slow wipe
G1 X-17 Y75 F2000 ; fast wipe
G1 X-15 Y65 F2000 ; fast wipe
G1 X-17 Y70 F2000 ; fast wipe
G1 X-15 Y60 F2000 ; fast wipe
G1 X-17 Y55 F2000 ; fast wipe
G1 X-15 Y50 F2000 ; fast wipe
G1 X-17 Y40 F2000 ; fast wipe
G1 X-15 Y45 F2000 ; fast wipe
G1 X-17 Y35 F2000 ; fast wipe
G1 X-15 Y40 F2000 ; fast wipe
G1 X-17 Y70 F2000 ; fast wipe
G1 X-15 Y30 Z2 F2000 ; fast wipe
G1 X-17 Y35 F2000 ; fast wipe
G1 X-15 Y25 F2000 ; fast wipe
G1 X-17 Y30 F2000 ; fast wipe
G1 X-15 Y25 Z1.5 F1000 ; slow wipe
G1 X-17 Y23 F1000 ; slow wipe
G1 Z10 ; raise extruder
M109 R160 ; wait for extruder to reach probe temp
G1 X-9 Y-9 ; move above first probe point
M204 S100 ; set probing acceleration
G29 ; start auto-leveling sequence
M420 S1 ; activate bed level matrix
M425 Z			     ; use measured Z backlash for compensation
M425 Z F0		     ; turn off measured Z backlash compensation. (if activated in the quality settings, this command will automatically be ignored)
M204 S500 ; restore standard acceleration
G1 X0 Y0 Z15 F5000 ; move up off last probe point
G4 S1 ; pause
M400 ; wait for moves to finish
M117 Heating... ; progress indicator message on LCD
M109 R230 ; wait for extruder to reach printing temp
M190 S60 ; wait for bed to reach printing temp
G1 Z2 E0 F75 ; prime tiny bit of filament into the nozzle
M117 TAZ 6 Printing... ; progress indicator message on LCD

M221 S100
;LAYER_COUNT:92
;LAYER:0
M107
G0 F2625 X14.118 Y78.632 Z0.424
;TYPE:SKIRT
G1 F900 X14.669 Y78.584 E0.01838
G1 X28.673 Y78.55 E0.48376
G1 X33.404 Y78.428 E0.64104
G1 X33.486 Y78.427 E0.64376
G1 X84.29 Y78.401 E2.33208
G1 X84.371 Y78.402 E2.33477
G1 X90.43 Y78.55 E2.53618
G1 X192.475 Y78.51 E5.92734
G1 X195.204 Y78.404 E6.0181
G1 X195.331 Y78.402 E6.02232
G1 X245.998 Y78.411 E7.70609
G1 X246.102 Y78.413 E7.70954
G1 X250.023 Y78.54 E7.83991
G1 X265.131 Y78.563 E8.34198
G1 X265.756 Y78.625 E8.36285
G1 X267.456 Y78.961 E8.42044
G1 X267.947 Y79.098 E8.43738
G1 X268.355 Y79.281 E8.45224
G1 X269.587 Y79.938 E8.49864
G1 X270.017 Y80.213 E8.5156
G1 X270.337 Y80.489 E8.52965
G1 X271.379 Y81.514 E8.57822
G1 X271.836 Y82.078 E8.60234
G1 X272.389 Y82.941 E8.63641
G1 X272.703 Y83.572 E8.65983
G1 X273.047 Y84.507 E8.69294
G1 X273.212 Y85.152 E8.71506
G1 X273.404 Y86.447 E8.75857
G1 X273.439 Y86.924 E8.77446
G1 X273.44 Y193.05 E12.30124
G1 X273.411 Y193.486 E12.31576
G1 X273.248 Y194.691 E12.35617
G1 X273.137 Y195.199 E12.37345
G1 X272.953 Y195.805 E12.3945
G1 X272.78 Y196.253 E12.41045
G1 X272.454 Y196.941 E12.43575
G1 X272.113 Y197.504 E12.45763
G1 X271.257 Y198.641 E12.50492
G1 X270.92 Y199.023 E12.52185
G1 X270.612 Y199.285 E12.53529
G1 X269.606 Y200.04 E12.57709
G1 X269.176 Y200.313 E12.59402
G1 X268.933 Y200.429 E12.60296
G1 X267.607 Y200.996 E12.65089
G1 X267.124 Y201.159 E12.66783
G1 X266.76 Y201.229 E12.68015
G1 X265.363 Y201.416 E12.72699
G1 X264.933 Y201.445 E12.74131
G1 X251.324 Y201.45 E13.19356
G1 X246.596 Y201.572 E13.35074
G1 X246.514 Y201.573 E13.35346
G1 X195.71 Y201.599 E15.04178
G1 X195.629 Y201.598 E15.04447
G1 X189.57 Y201.45 E15.24588
G1 X87.525 Y201.49 E18.63704
G1 X84.813 Y201.595 E18.72724
G1 X84.687 Y201.597 E18.73142
G1 X34.708 Y201.599 E20.39232
G1 X34.629 Y201.598 E20.39495
G1 X28.566 Y201.45 E20.5965
G1 X14.633 Y201.421 E21.05952
G1 X13.959 Y201.349 E21.08204
G1 X12.512 Y201.039 E21.13122
G1 X12.024 Y200.893 E21.14815
G1 X11.679 Y200.737 E21.16073
G1 X10.507 Y200.12 E21.20475
G1 X10.076 Y199.848 E21.22168
G1 X9.863 Y199.674 E21.23082
G1 X8.99 Y198.899 E21.26962
G1 X8.576 Y198.455 E21.28979
G1 X8.088 Y197.823 E21.31633
G1 X7.735 Y197.254 E21.33858
G1 X7.131 Y196.007 E21.38462
G1 X6.946 Y195.532 E21.40156
G1 X6.855 Y195.15 E21.41461
G1 X6.628 Y193.853 E21.45837
G1 X6.579 Y193.294 E21.47702
G1 X6.56 Y86.952 E25.01098
G1 X6.607 Y86.402 E25.02932
G1 X6.888 Y84.763 E25.08458
G1 X7.096 Y84.051 E25.10923
G1 X7.344 Y83.462 E25.13047
G1 X7.563 Y83.033 E25.14648
G1 X8.073 Y82.195 E25.17908
G1 X8.387 Y81.763 E25.19682
G1 X8.792 Y81.293 E25.21744
G1 X9.176 Y80.916 E25.23533
G1 X10.085 Y80.16 E25.27462
G1 X10.501 Y79.866 E25.29154
G1 X10.751 Y79.732 E25.30097
G1 X12.005 Y79.127 E25.34724
G1 X12.48 Y78.942 E25.36418
G1 X12.858 Y78.852 E25.37709
G1 X14.118 Y78.632 E25.4196
G0 F2625 X14.19 Y82.12
;TYPE:SUPPORT
G1 F900 X15.027 Y82.05 E25.44751
G1 X32.25 Y82.05 E26.01986
G1 X32.25 Y82.903 E26.04821
G1 X33.421 Y84.074 E26.10325
G1 X85.579 Y84.074 E27.83656
G1 X86.75 Y82.903 E27.89159
G1 X86.75 Y82.05 E27.91994
G1 X193.25 Y82.05 E31.45915
G1 X193.25 Y82.903 E31.48749
G1 X194.421 Y84.074 E31.54253
G1 X246.579 Y84.074 E33.27584
G1 X247.75 Y82.903 E33.33087
G1 X247.75 Y82.05 E33.35922
G1 X265.046 Y82.05 E33.934
G1 X265.726 Y82.105 E33.95667
G1 X266.543 Y82.3 E33.98459
G1 X267.236 Y82.588 E34.00953
G1 X267.918 Y83.003 E34.03606
G1 X268.499 Y83.5 E34.06146
G1 X269.009 Y84.097 E34.08756
G1 X269.432 Y84.79 E34.11454
G1 X269.698 Y85.442 E34.13794
G1 X269.894 Y86.273 E34.16631
G1 X269.95 Y86.945 E34.18872
G1 X269.95 Y193.042 E37.71454
G1 X269.89 Y193.755 E37.73831
G1 X269.707 Y194.541 E37.76513
G1 X269.429 Y195.218 E37.78945
G1 X268.998 Y195.918 E37.81677
G1 X268.495 Y196.512 E37.84264
G1 X267.949 Y196.972 E37.86636
G1 X267.226 Y197.417 E37.89458
G1 X266.546 Y197.701 E37.91907
G1 X265.738 Y197.894 E37.94667
G1 X265.037 Y197.95 E37.97004
G1 X247.75 Y197.95 E38.54452
G1 X247.75 Y197.097 E38.57287
G1 X246.579 Y195.926 E38.6279
G1 X194.421 Y195.926 E40.36122
G1 X193.25 Y197.097 E40.41625
G1 X193.25 Y197.95 E40.4446
G1 X86.75 Y197.95 E43.98381
G1 X86.75 Y197.097 E44.01215
G1 X85.579 Y195.926 E44.06719
G1 X33.421 Y195.926 E45.8005
G1 X32.25 Y197.097 E45.85553
G1 X32.25 Y197.95 E45.88388
G1 X14.951 Y197.95 E46.45876
G1 X14.235 Y197.892 E46.48263
G1 X13.48 Y197.712 E46.50843
G1 X12.786 Y197.423 E46.53341
G1 X12.54 Y197.281 E46.54285
G1 X12.109 Y197.015 E46.55968
G1 X11.489 Y196.492 E46.58663
G1 X11.045 Y195.969 E46.60943
G1 X10.943 Y195.828 E46.61522
G1 X10.587 Y195.241 E46.63803
G1 X10.288 Y194.522 E46.66391
G1 X10.117 Y193.791 E46.68886
G1 X10.05 Y192.998 E46.7153
G1 X10.05 Y86.957 E50.23926
G1 X10.109 Y86.255 E50.26267
G1 X10.294 Y85.46 E50.28979
G1 X10.574 Y84.787 E50.31402
G1 X10.99 Y84.096 E50.34082
G1 X11.5 Y83.5 E50.36689
G1 X12.102 Y82.987 E50.39317
G1 X12.76 Y82.586 E50.41878
G1 X13.493 Y82.283 E50.44514
G1 X14.19 Y82.12 E50.46892
G0 F2625 X225.795 Y138.034
G1 F900 X225.607 Y139.514 E50.5185
G1 X225.692 Y141.247 E50.57616
G1 X226 Y142.752 E50.62721
G1 X226.614 Y144.292 E50.68231
G1 X227.415 Y145.578 E50.73266
G1 X228.493 Y146.797 E50.78674
G1 X229.706 Y147.773 E50.83847
G1 X231.125 Y148.579 E50.89271
G1 X232.643 Y149.11 E50.94615
G1 X234.137 Y149.371 E50.99655
G1 X235 Y149.41 E51.02526
G1 X235.863 Y149.371 E51.05397
G1 X237.357 Y149.11 E51.10437
G1 X238.875 Y148.579 E51.15781
G1 X240.294 Y147.773 E51.21204
G1 X241.507 Y146.797 E51.26378
G1 X242.585 Y145.578 E51.31786
G1 X243.386 Y144.292 E51.36821
G1 X244 Y142.752 E51.4233
G1 X244.308 Y141.247 E51.47435
G1 X244.393 Y139.514 E51.53201
G1 X244.205 Y138.034 E51.58159
G1 X243.734 Y136.483 E51.63546
G1 X243.017 Y135.081 E51.68779
G1 X242.05 Y133.758 E51.74225
G1 X240.944 Y132.705 E51.793
G1 X239.603 Y131.789 E51.84697
G1 X238.141 Y131.124 E51.90034
G1 X236.612 Y130.73 E51.95281
G1 X235 Y130.595 E52.00657
G1 X233.388 Y130.73 E52.06033
G1 X231.859 Y131.124 E52.1128
G1 X230.397 Y131.789 E52.16617
G1 X229.056 Y132.705 E52.22014
G1 X227.95 Y133.758 E52.27089
G1 X226.983 Y135.081 E52.32535
G1 X226.266 Y136.483 E52.37768
G1 X225.795 Y138.034 E52.43155
G0 F2625 X225.562 Y138.278
G1 F900 X10.249 Y138.278 E59.58683
G0 F2625 X10.249 Y136.612
G1 F900 X226.017 Y136.612 E66.75722
G0 F2625 X226.576 Y135.438
G1 F900 X226.576 Y84.274 E68.4575
G0 F2625 X224.91 Y84.274
G1 F900 X224.91 Y195.726 E72.16128
G0 F2625 X223.244 Y195.726
G1 F900 X223.244 Y84.274 E75.86505
G0 F2625 X221.578 Y84.274
G1 F900 X221.578 Y195.726 E79.56882
G0 F2625 X219.912 Y195.726
G1 F900 X219.912 Y84.274 E83.27259
G0 F2625 X218.246 Y84.274
G1 F900 X218.246 Y195.726 E86.97636
G0 F2625 X216.58 Y195.726
G1 F900 X216.58 Y84.274 E90.68013
G0 F2625 X214.914 Y84.274
G1 F900 X214.914 Y195.726 E94.3839
G0 F2625 X213.248 Y195.726
G1 F900 X213.248 Y84.274 E98.08767
G0 F2625 X211.582 Y84.274
G1 F900 X211.582 Y195.726 E101.79144
G0 F2625 X209.916 Y195.726
G1 F900 X209.916 Y84.274 E105.49521
G0 F2625 X208.25 Y84.274
G1 F900 X208.25 Y195.726 E109.19899
G0 F2625 X206.584 Y195.726
G1 F900 X206.584 Y84.274 E112.90276
G0 F2625 X204.918 Y84.274
G1 F900 X204.918 Y195.726 E116.60653
G0 F2625 X203.252 Y195.726
G1 F900 X203.252 Y84.274 E120.3103
G0 F2625 X201.586 Y84.274
G1 F900 X201.586 Y195.726 E124.01407
G0 F2625 X199.92 Y195.726
G1 F900 X199.92 Y84.274 E127.71784
G0 F2625 X198.254 Y84.274
G1 F900 X198.254 Y195.726 E131.42161
G0 F2625 X196.588 Y195.726
G1 F900 X196.588 Y84.274 E135.12538
G0 F2625 X194.922 Y84.274
G1 F900 X194.922 Y195.726 E138.82915
G0 F2625 X193.475 Y196.588
G1 F900 X86.524 Y196.588 E142.38335
G0 F2625 X86.632 Y196.695
G1 F900 X86.632 Y83.305 E146.15152
G0 F2625 X86.637 Y83.3
G1 F900 X193.364 Y83.3 E149.69827
G0 F2625 X193.256 Y83.193
G1 F900 X193.256 Y196.807 E153.47389
G0 F2625 X191.59 Y197.75
G1 F900 X191.59 Y82.25 E157.31218
G0 F2625 X189.924 Y82.25
G1 F900 X189.924 Y197.75 E161.15048
G0 F2625 X188.258 Y197.75
G1 F900 X188.258 Y82.25 E164.98877
G0 F2625 X186.592 Y82.25
G1 F900 X186.592 Y197.75 E168.82707
G0 F2625 X184.926 Y197.75
G1 F900 X184.926 Y82.25 E172.66536
G0 F2625 X183.26 Y82.25
G1 F900 X183.26 Y197.75 E176.50365
G0 F2625 X181.594 Y197.75
G1 F900 X181.594 Y82.25 E180.34195
G0 F2625 X179.928 Y82.25
G1 F900 X179.928 Y197.75 E184.18024
G0 F2625 X178.262 Y197.75
G1 F900 X178.262 Y82.25 E188.01854
G0 F2625 X176.596 Y82.25
G1 F900 X176.596 Y197.75 E191.85683
G0 F2625 X174.93 Y197.75
G1 F900 X174.93 Y82.25 E195.69513
G0 F2625 X173.264 Y82.25
G1 F900 X173.264 Y197.75 E199.53342
G0 F2625 X171.598 Y197.75
G1 F900 X171.598 Y82.25 E203.37171
G0 F2625 X169.932 Y82.25
G1 F900 X169.932 Y197.75 E207.21001
G0 F2625 X168.266 Y197.75
G1 F900 X168.266 Y82.25 E211.0483
G0 F2625 X166.6 Y82.25
G1 F900 X166.6 Y197.75 E214.8866
G0 F2625 X164.934 Y197.75
G1 F900 X164.934 Y82.25 E218.72489
G0 F2625 X163.268 Y82.25
G1 F900 X163.268 Y197.75 E222.56318
G0 F2625 X161.602 Y197.75
G1 F900 X161.602 Y82.25 E226.40148
G0 F2625 X159.936 Y82.25
G1 F900 X159.936 Y197.75 E230.23977
G0 F2625 X158.27 Y197.75
G1 F900 X158.27 Y82.25 E234.07807
G0 F2625 X156.604 Y82.25
G1 F900 X156.604 Y197.75 E237.91636
G0 F2625 X154.938 Y197.75
G1 F900 X154.938 Y82.25 E241.75465
G0 F2625 X153.272 Y82.25
G1 F900 X153.272 Y197.75 E245.59295
G0 F2625 X151.606 Y197.75
G1 F900 X151.606 Y82.25 E249.43124
G0 F2625 X149.94 Y82.25
G1 F900 X149.94 Y197.75 E253.26954
G0 F2625 X148.274 Y197.75
G1 F900 X148.274 Y82.25 E257.10783
G0 F2625 X146.608 Y82.25
G1 F900 X146.608 Y197.75 E260.94612
G0 F2625 X144.942 Y197.75
G1 F900 X144.942 Y82.25 E264.78442
G0 F2625 X143.276 Y82.25
G1 F900 X143.276 Y197.75 E268.62271
G0 F2625 X141.61 Y197.75
G1 F900 X141.61 Y82.25 E272.46101
G0 F2625 X139.944 Y82.25
G1 F900 X139.944 Y197.75 E276.2993
G0 F2625 X138.278 Y197.75
G1 F900 X138.278 Y82.25 E280.13759
G0 F2625 X136.612 Y82.25
G1 F900 X136.612 Y197.75 E283.97589
G0 F2625 X134.946 Y197.75
G1 F900 X134.946 Y82.25 E287.81418
G0 F2625 X133.28 Y82.25
G1 F900 X133.28 Y197.75 E291.65248
G0 F2625 X131.614 Y197.75
G1 F900 X131.614 Y82.25 E295.49077
G0 F2625 X129.948 Y82.25
G1 F900 X129.948 Y197.75 E299.32906
G0 F2625 X128.282 Y197.75
G1 F900 X128.282 Y82.25 E303.16736
G0 F2625 X126.616 Y82.25
G1 F900 X126.616 Y197.75 E307.00565
G0 F2625 X124.95 Y197.75
G1 F900 X124.95 Y82.25 E310.84395
G0 F2625 X123.284 Y82.25
G1 F900 X123.284 Y197.75 E314.68224
G0 F2625 X121.618 Y197.75
G1 F900 X121.618 Y82.25 E318.52053
G0 F2625 X119.952 Y82.25
G1 F900 X119.952 Y197.75 E322.35883
G0 F2625 X118.286 Y197.75
G1 F900 X118.286 Y82.25 E326.19712
G0 F2625 X116.62 Y82.25
G1 F900 X116.62 Y197.75 E330.03542
G0 F2625 X114.954 Y197.75
G1 F900 X114.954 Y82.25 E333.87371
G0 F2625 X113.288 Y82.25
G1 F900 X113.288 Y197.75 E337.71201
G0 F2625 X111.622 Y197.75
G1 F900 X111.622 Y82.25 E341.5503
G0 F2625 X109.956 Y82.25
G1 F900 X109.956 Y197.75 E345.38859
G0 F2625 X108.29 Y197.75
G1 F900 X108.29 Y82.25 E349.22689
G0 F2625 X106.624 Y82.25
G1 F900 X106.624 Y197.75 E353.06518
G0 F2625 X104.958 Y197.75
G1 F900 X104.958 Y82.25 E356.90348
G0 F2625 X103.292 Y82.25
G1 F900 X103.292 Y197.75 E360.74177
G0 F2625 X101.626 Y197.75
G1 F900 X101.626 Y82.25 E364.58006
G0 F2625 X99.96 Y82.25
G1 F900 X99.96 Y197.75 E368.41836
G0 F2625 X98.294 Y197.75
G1 F900 X98.294 Y82.25 E372.25665
G0 F2625 X96.628 Y82.25
G1 F900 X96.628 Y197.75 E376.09495
G0 F2625 X94.962 Y197.75
G1 F900 X94.962 Y82.25 E379.93324
G0 F2625 X93.296 Y82.25
G1 F900 X93.296 Y197.75 E383.77153
G0 F2625 X91.63 Y197.75
G1 F900 X91.63 Y82.25 E387.60983
G0 F2625 X89.964 Y82.25
G1 F900 X89.964 Y197.75 E391.44812
G0 F2625 X88.298 Y197.75
G1 F900 X88.298 Y82.25 E395.28642
G0 F2625 X84.966 Y84.274
G1 F900 X84.966 Y195.726 E398.99019
G0 F2625 X83.3 Y195.726
G1 F900 X83.3 Y84.274 E402.69396
G0 F2625 X81.634 Y84.274
G1 F900 X81.634 Y195.726 E406.39773
G0 F2625 X79.968 Y195.726
G1 F900 X79.968 Y84.274 E410.1015
G0 F2625 X78.302 Y84.274
G1 F900 X78.302 Y195.726 E413.80527
G0 F2625 X76.636 Y195.726
G1 F900 X76.636 Y84.274 E417.50904
G0 F2625 X74.97 Y84.274
G1 F900 X74.97 Y195.726 E421.21281
G0 F2625 X73.304 Y195.726
G1 F900 X73.304 Y84.274 E424.91658
G0 F2625 X71.638 Y84.274
G1 F900 X71.638 Y195.726 E428.62036
G0 F2625 X69.972 Y195.726
G1 F900 X69.972 Y84.274 E432.32413
G0 F2625 X68.306 Y84.274
G1 F900 X68.306 Y195.726 E436.0279
G0 F2625 X66.64 Y195.726
G1 F900 X66.64 Y84.274 E439.73167
G0 F2625 X64.974 Y84.274
G1 F900 X64.974 Y195.726 E443.43544
G0 F2625 X63.308 Y195.726
G1 F900 X63.308 Y84.274 E447.13921
G0 F2625 X61.642 Y84.274
G1 F900 X61.642 Y195.726 E450.84298
G0 F2625 X59.976 Y195.726
G1 F900 X59.976 Y84.274 E454.54675
G0 F2625 X58.31 Y84.274
G1 F900 X58.31 Y195.726 E458.25052
G0 F2625 X56.644 Y195.726
G1 F900 X56.644 Y84.274 E461.95429
G0 F2625 X54.978 Y84.274
G1 F900 X54.978 Y195.726 E465.65806
G0 F2625 X53.312 Y195.726
G1 F900 X53.312 Y84.274 E469.36184
G0 F2625 X51.646 Y84.274
G1 F900 X51.646 Y195.726 E473.06561
G0 F2625 X49.98 Y195.726
G1 F900 X49.98 Y84.274 E476.76938
G0 F2625 X48.314 Y84.274
G1 F900 X48.314 Y195.726 E480.47315
G0 F2625 X46.648 Y195.726
G1 F900 X46.648 Y84.274 E484.17692
G0 F2625 X44.982 Y84.274
G1 F900 X44.982 Y195.726 E487.88069
G0 F2625 X43.316 Y195.726
G1 F900 X43.316 Y84.274 E491.58446
G0 F2625 X41.65 Y84.274
G1 F900 X41.65 Y195.726 E495.28823
G0 F2625 X39.984 Y195.726
G1 F900 X39.984 Y84.274 E498.992
G0 F2625 X38.318 Y84.274
G1 F900 X38.318 Y195.726 E502.69577
G0 F2625 X36.652 Y195.726
G1 F900 X36.652 Y84.274 E506.39955
G0 F2625 X34.986 Y84.274
G1 F900 X34.986 Y195.726 E510.10332
G0 F2625 X33.32 Y195.743
G1 F900 X33.32 Y84.257 E513.80822
G0 F2625 X32.362 Y83.3
G1 F900 X12.042 Y83.3 E514.48349
G0 F2625 X11.662 Y83.624
G1 F900 X11.662 Y196.376 E518.23046
G0 F2625 X11.911 Y196.588
G1 F900 X32.474 Y196.588 E518.91381
G0 F2625 X31.654 Y197.75
